information-box.svg

<svg fill="currentColor" viewBox="0 0 24 24"><path d="M5 3h14a2 2 0 0 1 2 2v14c0 .53-.21 1.04-.59 1.41-.37.38-.88.59-1.41.59H5c-.53 0-1.04-.21-1.41-.59C3.21 20.04 3 19.53 3 19V5c0-1.11.89-2 2-2m8 6V7h-2v2zm0 8v-6h-2v6z"/></svg>

<svg  viewBox="0 0 24 24" fill="currentColor"><path  d="M5 3H19C20.1 3 21 3.89 21 5V19C21 19.53 20.79 20.04 20.41 20.41C20.04 20.79 19.53 21 19 21H5C4.47 21 3.96 20.79 3.59 20.41C3.21 20.04 3 19.53 3 19V5C3 3.89 3.89 3 5 3M13 9V7H11V9H13M13 17V11H11V17H13Z"/></svg>
